teeny/solid/clipboard-no-access.svg

<svg width="15" height="15" viewBox="0 0 15 15" fill="none" xmlns="http://www.w3.org/2000/svg">
<path d="M7.5 6C6.11929 6 5 7.11929 5 8.5C5 9.00954 5.15244 9.48349 5.4142 9.8787L8.8787 6.4142C8.48349 6.15244 8.00954 6 7.5 6Z" fill="black"/>
<path d="M7.5 11C6.99046 11 6.51653 10.8476 6.12131 10.5858L9.58581 7.12131C9.84756 7.51653 10 7.99046 10 8.5C10 9.88071 8.88071 11 7.5 11Z" fill="black"/>
<path fill-rule="evenodd" clip-rule="evenodd" d="M4 0H11V1H14V13.5C14 14.3284 13.3284 15 12.5 15H2.5C1.67157 15 1 14.3284 1 13.5V1H4V0ZM5 1H10V2.5C10 2.77614 9.77614 3 9.5 3H5.5C5.22386 3 5 2.77614 5 2.5V1ZM4 8.5C4 6.567 5.567 5 7.5 5C9.433 5 11 6.567 11 8.5C11 10.433 9.433 12 7.5 12C5.567 12 4 10.433 4 8.5Z" fill="black"/>
</svg>

<svg viewBox="0 0 15 15" xmlns="http://www.w3.org/2000/svg"><g><path d="M7.5 6C6.11 6 5 7.11 5 8.5c0 .5.15.98.41 1.37L8.87 6.4c-.4-.27-.87-.42-1.38-.42Z"/><path d="M7.5 11c-.51 0-.99-.16-1.38-.42l3.46-3.47c.26.39.41.86.41 1.37 0 1.38-1.12 2.5-2.5 2.5Z"/><path fill-rule="evenodd" d="M4 0h7v1h3v12.5c0 .82-.68 1.5-1.5 1.5h-10c-.83 0-1.5-.68-1.5-1.5V1h3V0Zm1 1h5v1.5c0 .27-.23.5-.5.5h-4c-.28 0-.5-.23-.5-.5V1ZM4 8.5C4 6.56 5.56 5 7.5 5 9.43 5 11 6.56 11 8.5c0 1.93-1.57 3.5-3.5 3.5C5.56 12 4 10.43 4 8.5Z"/></g></svg>
